X:903
T:Xiraldilla (CT 425)
R:Xiraldilla
C:Tradicional
S:Msica Tradicional Asturiana, (C) Tello & Tito. Asturies, 2001.
S:http://pagina.de/MusTradAst <telloytito@asturies.org>
N:Xiraldilla, transcrita en Murias, ayuntamiento de Quirs.
A:Asturies
O:Murias (Quirs)
Z:Cancioneru de Torner 425
M:3/8
L:1/8
Q:3/8=88
K:Cm
G/G/|c=Bc|edc|(B>A)G-|GzG/G/|
c2 c|def|g3|g2 g|
(ag)f|gfe|d2 c|(fe)d|
edc|dc=B|c3-|c2 z||
W:A la una me toca la suerte
W:y alas dos me van a quintar
W:y a las tres me meten en talla
W:y a las cuatro talladito ya.
W:
